play/Ribbon.svg

<svg width="510" height="132" viewBox="0 0 510 132" fill="none" xmlns="http://www.w3.org/2000/svg">
<path d="M28.7769 51.9422C24.573 41.4324 32.3131 30 43.6325 30L106 30C114.837 30 122 37.1634 122 46V116C122 124.837 114.837 132 106 132H43.6325C32.3131 132 24.573 120.568 28.7769 110.058L40.4 81L28.7769 51.9422Z" fill="#F8E9E9"/>
<mask id="mask0_28_944" style="mask-type:alpha" maskUnits="userSpaceOnUse" x="27" y="30" width="95" height="102">
<path d="M28.7769 51.9422C24.573 41.4324 32.3131 30 43.6325 30L106 30C114.837 30 122 37.1634 122 46V116C122 124.837 114.837 132 106 132H43.6325C32.3131 132 24.573 120.568 28.7769 110.058L38.0231 86.9422C39.5489 83.1277 39.5489 78.8723 38.0231 75.0577L28.7769 51.9422Z" fill="url(#paint0_linear_28_944)"/>
</mask>
<g mask="url(#mask0_28_944)">
<path d="M122 88H82L102 110L122 132V88Z" fill="black" fill-opacity="0.4"/>
</g>
<path d="M481.223 51.9422C485.427 41.4324 477.687 30 466.367 30L404 30C395.163 30 388 37.1634 388 46V116C388 124.837 395.163 132 404 132H466.367C477.687 132 485.427 120.568 481.223 110.058L469.6 81L481.223 51.9422Z" fill="#F8E9E9"/>
<mask id="mask1_28_944" style="mask-type:alpha" maskUnits="userSpaceOnUse" x="388" y="30" width="95" height="102">
<path d="M481.223 51.9422C485.427 41.4324 477.687 30 466.367 30L404 30C395.163 30 388 37.1634 388 46V116C388 124.837 395.163 132 404 132H466.367C477.687 132 485.427 120.568 481.223 110.058L471.977 86.9422C470.451 83.1277 470.451 78.8723 471.977 75.0577L481.223 51.9422Z" fill="url(#paint1_linear_28_944)"/>
</mask>
<g mask="url(#mask1_28_944)">
<path d="M388 88H428L408 110L388 132V88Z" fill="black" fill-opacity="0.4"/>
</g>
<rect x="69.5" width="371" height="102" rx="16" fill="#F8E9E9"/>
<path d="M141.493 42.27V48.234H151.111V53.778H141.493V60.246H152.371V66H134.311V36.516H152.371V42.27H141.493ZM155.606 54.24C155.606 51.832 156.054 49.718 156.95 47.898C157.874 46.078 159.12 44.678 160.688 43.698C162.256 42.718 164.006 42.228 165.938 42.228C167.59 42.228 169.032 42.564 170.264 43.236C171.524 43.908 172.49 44.79 173.162 45.882V42.564H180.344V66H173.162V62.682C172.462 63.774 171.482 64.656 170.222 65.328C168.99 66 167.548 66.336 165.896 66.336C163.992 66.336 162.256 65.846 160.688 64.866C159.12 63.858 157.874 62.444 156.95 60.624C156.054 58.776 155.606 56.648 155.606 54.24ZM173.162 54.282C173.162 52.49 172.658 51.076 171.65 50.04C170.67 49.004 169.466 48.486 168.038 48.486C166.61 48.486 165.392 49.004 164.384 50.04C163.404 51.048 162.914 52.448 162.914 54.24C162.914 56.032 163.404 57.46 164.384 58.524C165.392 59.56 166.61 60.078 168.038 60.078C169.466 60.078 170.67 59.56 171.65 58.524C172.658 57.488 173.162 56.074 173.162 54.282ZM192.722 46.47C193.562 45.182 194.612 44.174 195.872 43.446C197.132 42.69 198.532 42.312 200.072 42.312V49.914H198.098C196.306 49.914 194.962 50.306 194.066 51.09C193.17 51.846 192.722 53.19 192.722 55.122V66H185.54V42.564H192.722V46.47ZM216.566 59.91V66H212.912C210.308 66 208.278 65.37 206.822 64.11C205.366 62.822 204.638 60.736 204.638 57.852V48.528L201.782 48.528V42.564L204.638 42.564V36.852H211.82V42.564H216.524V48.528H211.82V57.936C211.82 58.636 211.988 59.14 212.324 59.448C212.66 59.756 213.22 59.91 214.004 59.91H216.566ZM234.973 42.312C237.661 42.312 239.817 43.208 241.441 45C243.065 46.764 243.877 49.2 243.877 52.308V66H236.737V53.274C236.737 51.706 236.331 50.488 235.519 49.62C234.707 48.752 233.615 48.318 232.243 48.318C230.871 48.318 229.779 48.752 228.967 49.62C228.155 50.488 227.749 51.706 227.749 53.274V66H220.567V34.92H227.749V45.714C228.477 44.678 229.471 43.852 230.731 43.236C231.991 42.62 233.405 42.312 234.973 42.312ZM272.804 66L266.672 54.87H264.95V66H257.768V36.516H269.822C272.146 36.516 274.12 36.922 275.744 37.734C277.396 38.546 278.628 39.666 279.44 41.094C280.252 42.494 280.658 44.062 280.658 45.798C280.658 47.758 280.098 49.508 278.978 51.048C277.886 52.588 276.262 53.68 274.106 54.324L280.91 66L272.804 66ZM264.95 49.788H269.402C270.718 49.788 271.698 49.466 272.342 48.822C273.014 48.178 273.35 47.268 273.35 46.092C273.35 44.972 273.014 44.09 272.342 43.446C271.698 42.802 270.718 42.48 269.402 42.48H264.95V49.788ZM299.573 42.312C302.261 42.312 304.417 43.208 306.041 45C307.665 46.764 308.477 49.2 308.477 52.308V66H301.337V53.274C301.337 51.706 300.931 50.488 300.119 49.62C299.307 48.752 298.215 48.318 296.843 48.318C295.471 48.318 294.379 48.752 293.567 49.62C292.755 50.488 292.349 51.706 292.349 53.274V66H285.167V34.92H292.349V45.714C293.077 44.678 294.071 43.852 295.331 43.236C296.591 42.62 298.005 42.312 299.573 42.312ZM317.079 40.128C315.819 40.128 314.783 39.764 313.971 39.036C313.187 38.28 312.795 37.356 312.795 36.264C312.795 35.144 313.187 34.22 313.971 33.492C314.783 32.736 315.819 32.358 317.079 32.358C318.311 32.358 319.319 32.736 320.103 33.492C320.915 34.22 321.321 35.144 321.321 36.264C321.321 37.356 320.915 38.28 320.103 39.036C319.319 39.764 318.311 40.128 317.079 40.128ZM320.649 42.564V66H313.467V42.564H320.649ZM340.134 42.312C342.878 42.312 345.062 43.208 346.686 45C348.338 46.764 349.164 49.2 349.164 52.308V66H342.024V53.274C342.024 51.706 341.618 50.488 340.806 49.62C339.994 48.752 338.902 48.318 337.53 48.318C336.158 48.318 335.066 48.752 334.254 49.62C333.442 50.488 333.036 51.706 333.036 53.274V66H325.854V42.564H333.036V45.672C333.764 44.636 334.744 43.824 335.976 43.236C337.208 42.62 338.594 42.312 340.134 42.312ZM364.823 66.336C362.527 66.336 360.455 65.846 358.607 64.866C356.787 63.886 355.345 62.486 354.281 60.666C353.245 58.846 352.727 56.718 352.727 54.282C352.727 51.874 353.259 49.76 354.323 47.94C355.387 46.092 356.843 44.678 358.691 43.698C360.539 42.718 362.611 42.228 364.907 42.228C367.203 42.228 369.275 42.718 371.123 43.698C372.971 44.678 374.427 46.092 375.491 47.94C376.555 49.76 377.087 51.874 377.087 54.282C377.087 56.69 376.541 58.818 375.449 60.666C374.385 62.486 372.915 63.886 371.039 64.866C369.191 65.846 367.119 66.336 364.823 66.336ZM364.823 60.12C366.195 60.12 367.357 59.616 368.309 58.608C369.289 57.6 369.779 56.158 369.779 54.282C369.779 52.406 369.303 50.964 368.351 49.956C367.427 48.948 366.279 48.444 364.907 48.444C363.507 48.444 362.345 48.948 361.421 49.956C360.497 50.936 360.035 52.378 360.035 54.282C360.035 56.158 360.483 57.6 361.379 58.608C362.303 59.616 363.451 60.12 364.823 60.12Z" fill="#390909"/>
<defs>
<linearGradient id="paint0_linear_28_944" x1="71" y1="30" x2="71" y2="132" gradientUnits="userSpaceOnUse">
<stop stop-color="#FF0055"/>
<stop offset="1" stop-color="#C70042"/>
</linearGradient>
<linearGradient id="paint1_linear_28_944" x1="439" y1="30" x2="439" y2="132" gradientUnits="userSpaceOnUse">
<stop stop-color="#FF0055"/>
<stop offset="1" stop-color="#C70042"/>
</linearGradient>
</defs>
</svg>

<svg version="1.2" xmlns="http://www.w3.org/2000/svg" viewBox="0 0 510 132" width="510" height="132"><defs><clipPath clipPathUnits="userSpaceOnUse" id="cp1"><path d="m28.78 51.94c-4.21-10.51 3.53-21.94 14.85-21.94h62.37c8.84 0 16 7.16 16 16v70c0 8.84-7.16 16-16 16h-62.37c-11.32 0-19.06-11.43-14.85-21.94l9.24-23.12c1.53-3.81 1.53-8.07 0-11.88z"/></clipPath><clipPath clipPathUnits="userSpaceOnUse" id="cp2"><path d="m481.22 51.94c4.21-10.51-3.53-21.94-14.85-21.94h-62.37c-8.84 0-16 7.16-16 16v70c0 8.84 7.16 16 16 16h62.37c11.32 0 19.06-11.43 14.85-21.94l-9.24-23.12c-1.53-3.81-1.53-8.07 0-11.88z"/></clipPath></defs><style>.a{fill:#f8e9e9}.b{opacity:.4}</style><path class="a" d="m28.8 51.9c-4.2-10.5 3.5-21.9 14.8-21.9h62.4c8.8 0 16 7.2 16 16v70c0 8.8-7.2 16-16 16h-62.4c-11.3 0-19-11.4-14.8-21.9l11.6-29.1z"/><g clip-path="url(#cp1)"><path class="b" d="m122 88h-40l20 22 20 22z"/></g><path class="a" d="m481.2 51.9c4.2-10.5-3.5-21.9-14.8-21.9h-62.4c-8.8 0-16 7.2-16 16v70c0 8.8 7.2 16 16 16h62.4c11.3 0 19-11.4 14.8-21.9l-11.6-29.1z"/><g clip-path="url(#cp2)"><path class="b" d="m388 88h40l-20 22-20 22z"/></g><path fill-rule="evenodd" class="a" d="m85.5 0h339c8.8 0 16 7.2 16 16v70c0 8.8-7.2 16-16 16h-339c-8.8 0-16-7.2-16-16v-70c0-8.8 7.2-16 16-16z"/></svg>
